X: 1
T:Haste to the Wedding
C:Trad
R:Jig
M:6/8
K:D
Z:From O'Neills
L:1/8
A | AFA Agf | ede fdB| AFA AdF| EFE E2 A| AFA Agf| ede fdB| A2 g gag|ded
 d2 :|
|:a | afa afa | bgb bgb| afa agf| efe efg| a3 f3 |ede fdB| A2 g gag| ded
 d2 :||
